packages/icons/raw/imported/OtherRewards.svg

<svg width="32" height="32" viewBox="0 0 32 32" fill="none" xmlns="http://www.w3.org/2000/svg">
<path d="M12.3442 7.17805L12.1318 7.6307L12.1325 7.63105L12.3442 7.17805ZM15.9236 10.9425L15.9358 11.4424C16.1254 11.4378 16.296 11.3263 16.3764 11.1546C16.4568 10.9829 16.4331 10.7804 16.3153 10.6319L15.9236 10.9425ZM10.7474 10.6052L10.535 11.0578L10.5358 11.0582L10.7474 10.6052ZM19.6558 7.17806L19.8674 7.63105L19.8682 7.63071L19.6558 7.17806ZM16.0764 10.9425L15.6846 10.6319C15.5668 10.7804 15.5432 10.9829 15.6236 11.1546C15.704 11.3263 15.8746 11.4378 16.0642 11.4424L16.0764 10.9425ZM21.2526 10.6052L21.4642 11.0582L21.4649 11.0578L21.2526 10.6052ZM12.1325 7.63105C12.2796 7.69975 12.5645 7.92861 12.9509 8.30869C13.3181 8.66991 13.7269 9.11634 14.1118 9.55526C14.4957 9.99308 14.8511 10.418 15.1108 10.7339C15.2405 10.8917 15.3461 11.0219 15.4191 11.1126C15.4556 11.1579 15.484 11.1933 15.5031 11.2172C15.5127 11.2292 15.5199 11.2383 15.5248 11.2444C15.5272 11.2474 15.529 11.2497 15.5302 11.2512C15.5308 11.2519 15.5312 11.2524 15.5315 11.2528C15.5316 11.253 15.5317 11.2531 15.5318 11.2532C15.5318 11.2532 15.5318 11.2532 15.5318 11.2532C15.5318 11.2532 15.5318 11.2532 15.9236 10.9425C16.3153 10.6319 16.3153 10.6318 16.3153 10.6318C16.3152 10.6317 16.3152 10.6317 16.3151 10.6316C16.315 10.6315 16.3149 10.6313 16.3147 10.6311C16.3143 10.6306 16.3138 10.63 16.3131 10.6291C16.3118 10.6274 16.3098 10.6249 16.3072 10.6216C16.302 10.6151 16.2943 10.6055 16.2844 10.593C16.2644 10.5681 16.2352 10.5316 16.1978 10.4852C16.123 10.3923 16.0153 10.2595 15.8832 10.0988C15.6192 9.7777 15.2567 9.34417 14.8637 8.89597C14.4716 8.44887 14.0445 7.98174 13.6522 7.59578C13.279 7.2287 12.8806 6.87678 12.5559 6.72506L12.1325 7.63105ZM15.9236 10.9425C15.9113 10.4427 15.9114 10.4427 15.9114 10.4427C15.9113 10.4427 15.9113 10.4427 15.9113 10.4427C15.9112 10.4427 15.911 10.4427 15.9108 10.4427C15.9103 10.4427 15.9097 10.4427 15.9087 10.4428C15.9068 10.4428 15.9039 10.4429 15.9001 10.443C15.8923 10.4431 15.8807 10.4434 15.8654 10.4437C15.8348 10.4443 15.7896 10.4452 15.7315 10.4462C15.6153 10.4481 15.448 10.4504 15.2441 10.4518C14.8359 10.4546 14.2829 10.4538 13.7018 10.4393C13.1191 10.4249 12.5154 10.3969 12.0034 10.3463C11.4648 10.2931 11.1065 10.2211 10.9591 10.1522L10.5358 11.0582C10.8601 11.2097 11.3847 11.2901 11.9051 11.3415C12.4521 11.3955 13.0834 11.4243 13.6769 11.439C14.2718 11.4538 14.836 11.4547 15.2509 11.4518C15.4585 11.4504 15.6292 11.4481 15.7482 11.4461C15.8077 11.4451 15.8543 11.4442 15.8862 11.4435C15.9022 11.4432 15.9144 11.4429 15.9227 11.4427C15.9269 11.4426 15.9301 11.4425 15.9323 11.4425C15.9334 11.4424 15.9342 11.4424 15.9348 11.4424C15.9351 11.4424 15.9353 11.4424 15.9355 11.4424C15.9356 11.4424 15.9356 11.4424 15.9357 11.4424C15.9358 11.4424 15.9358 11.4424 15.9236 10.9425ZM10.9598 10.1525C10.6273 9.99652 10.3696 9.71406 10.2441 9.36678L9.30363 9.70677C9.51908 10.3027 9.96183 10.7889 10.535 11.0578L10.9598 10.1525ZM10.2441 9.36678C10.1185 9.01944 10.1356 8.63622 10.2915 8.30159L9.38504 7.87926C9.11745 8.45357 9.0882 9.11089 9.30363 9.70677L10.2441 9.36678ZM10.2915 8.30159C10.4474 7.96702 10.729 7.70884 11.074 7.58325L10.7319 6.64359C10.1369 6.8602 9.65265 7.3049 9.38504 7.87926L10.2915 8.30159ZM11.074 7.58325C11.4189 7.45767 11.7994 7.47471 12.1318 7.6307L12.5566 6.7254C11.9833 6.45641 11.3269 6.42696 10.7319 6.64359L11.074 7.58325ZM19.4441 6.72507C19.1194 6.87679 18.721 7.2287 18.3478 7.59579C17.9554 7.98175 17.5283 8.44888 17.1363 8.89598C16.7433 9.34418 16.3808 9.7777 16.1168 10.0988C15.9847 10.2595 15.877 10.3923 15.8022 10.4852C15.7647 10.5316 15.7355 10.5681 15.7156 10.593C15.7056 10.6055 15.698 10.6151 15.6928 10.6216C15.6902 10.6249 15.6882 10.6274 15.6868 10.6291C15.6861 10.63 15.6856 10.6306 15.6853 10.6311C15.6851 10.6313 15.6849 10.6315 15.6848 10.6316C15.6848 10.6317 15.6847 10.6318 15.6847 10.6318C15.6847 10.6318 15.6846 10.6319 16.0764 10.9425C16.4682 11.2532 16.4682 11.2532 16.4682 11.2532C16.4682 11.2532 16.4682 11.2532 16.4682 11.2532C16.4683 11.2531 16.4684 11.253 16.4685 11.2528C16.4688 11.2525 16.4692 11.2519 16.4698 11.2512C16.471 11.2497 16.4728 11.2474 16.4752 11.2444C16.48 11.2383 16.4873 11.2292 16.4969 11.2172C16.516 11.1933 16.5443 11.1579 16.5809 11.1126C16.6539 11.0219 16.7595 10.8917 16.8892 10.7339C17.1489 10.418 17.5043 9.99308 17.8882 9.55527C18.2731 9.11635 18.6818 8.66992 19.0491 8.3087C19.4355 7.92862 19.7204 7.69976 19.8674 7.63105L19.4441 6.72507ZM16.0764 10.9425C16.0642 11.4424 16.0642 11.4424 16.0643 11.4424C16.0643 11.4424 16.0644 11.4424 16.0645 11.4424C16.0646 11.4424 16.0649 11.4424 16.0652 11.4424C16.0658 11.4424 16.0666 11.4425 16.0677 11.4425C16.0699 11.4425 16.0731 11.4426 16.0772 11.4427C16.0856 11.4429 16.0978 11.4432 16.1138 11.4435C16.1456 11.4442 16.1922 11.4451 16.2517 11.4461C16.3707 11.4481 16.5414 11.4504 16.7491 11.4518C17.164 11.4547 17.7281 11.4538 18.3231 11.439C18.9165 11.4243 19.5479 11.3955 20.0949 11.3415C20.6153 11.2901 21.1399 11.2097 21.4642 11.0582L21.0409 10.1522C20.8934 10.2211 20.5352 10.2931 19.9966 10.3463C19.4846 10.3969 18.8808 10.4249 18.2982 10.4393C17.7171 10.4538 17.1641 10.4546 16.7559 10.4518C16.552 10.4504 16.3846 10.4481 16.2685 10.4462C16.2104 10.4452 16.1652 10.4443 16.1346 10.4437C16.1193 10.4434 16.1077 10.4431 16.0999 10.443C16.0961 10.4429 16.0932 10.4428 16.0913 10.4428C16.0903 10.4427 16.0896 10.4427 16.0892 10.4427C16.089 10.4427 16.0888 10.4427 16.0887 10.4427C16.0887 10.4427 16.0886 10.4427 16.0886 10.4427C16.0886 10.4427 16.0886 10.4427 16.0764 10.9425ZM21.4649 11.0578C21.7487 10.9247 22.0035 10.7368 22.2148 10.5049L21.4757 9.83141C21.3528 9.96619 21.2048 10.0753 21.0402 10.1525L21.4649 11.0578ZM22.2148 10.5049C22.4261 10.2731 22.5897 10.0019 22.6963 9.70678L21.7559 9.36679C21.6938 9.53873 21.5985 9.6966 21.4757 9.83141L22.2148 10.5049ZM22.6963 9.70678C22.803 9.41168 22.8507 9.09844 22.8368 8.78492L21.8378 8.82941C21.8459 9.01223 21.8181 9.19484 21.7559 9.36679L22.6963 9.70678ZM22.8368 8.78492C22.8228 8.4714 22.7474 8.16367 22.6149 7.87927L21.7085 8.3016C21.7857 8.46726 21.8296 8.64661 21.8378 8.82941L22.8368 8.78492ZM22.6149 7.87927C22.4824 7.59487 22.2953 7.33932 22.0643 7.12727L21.3881 7.86406C21.5224 7.98728 21.6313 8.13594 21.7085 8.3016L22.6149 7.87927ZM22.0643 7.12727C21.8332 6.91522 21.5627 6.75084 21.2681 6.64359L20.926 7.58325C21.0968 7.64545 21.2539 7.74084 21.3881 7.86406L22.0643 7.12727ZM21.2681 6.64359C20.9735 6.53635 20.6607 6.48834 20.3476 6.50239L20.3924 7.50138C20.5738 7.49325 20.7552 7.52105 20.926 7.58325L21.2681 6.64359ZM20.3476 6.50239C20.0345 6.51643 19.7272 6.59224 19.4434 6.72541L19.8682 7.63071C20.0328 7.55345 20.211 7.50952 20.3924 7.50138L20.3476 6.50239ZM7.70327 15.6386V22.6999H8.70327V15.6386H7.70327ZM10.4953 25.5H21.5046V24.5H10.4953V25.5ZM24.2967 22.6999V15.6386H23.2967V22.6999H24.2967ZM21.5046 25.5C23.0483 25.5 24.2967 24.2447 24.2967 22.6999H23.2967C23.2967 23.6957 22.4927 24.5 21.5046 24.5V25.5ZM7.70327 22.6999C7.70327 24.2447 8.95165 25.5 10.4953 25.5V24.5C9.50725 24.5 8.70327 23.6957 8.70327 22.6999H7.70327ZM17.3829 16.0543H24.236V15.0543H17.3829V16.0543ZM25.5 14.7876V12.476H24.5V14.7876H25.5ZM23.472 10.4426H8.52801V11.4426H23.472V10.4426ZM6.5 12.476V14.7876H7.5V12.476H6.5ZM7.76401 16.0543H14.6133V15.0543H7.76401V16.0543ZM6.5 14.7876C6.5 15.4855 7.06426 16.0543 7.76401 16.0543V15.0543C7.61986 15.0543 7.5 14.9365 7.5 14.7876H6.5ZM8.52801 10.4426C7.40632 10.4426 6.5 11.3546 6.5 12.476H7.5C7.5 11.9036 7.96191 11.4426 8.52801 11.4426V10.4426ZM25.5 12.476C25.5 11.3546 24.5937 10.4426 23.472 10.4426V11.4426C24.0381 11.4426 24.5 11.9036 24.5 12.476H25.5ZM24.236 16.0543C24.9357 16.0543 25.5 15.4855 25.5 14.7876H24.5C24.5 14.9365 24.3801 15.0543 24.236 15.0543V16.0543ZM14.1706 11.0384V24.9425H15.1706V11.0384H14.1706ZM16.8293 11.0384V24.9425H17.8293V11.0384H16.8293Z" fill="black"/>
</svg>

<svg width="32" height="32" fill="none" xmlns="http://www.w3.org/2000/svg"><path d="m12.344 7.178-.212.453.212-.453Zm3.58 3.765.012.5a.5.5 0 0 0 .38-.811l-.392.31Zm-5.177-.338-.212.453.212-.453Zm8.909-3.427.211.453h.001l-.212-.453Zm-3.58 3.765-.391-.311a.5.5 0 0 0 .38.81l.011-.5Zm5.177-.338.211.453-.211-.453Zm-9.12-2.974c.147.069.432.298.818.678.367.36.776.807 1.16 1.246a49.649 49.649 0 0 1 1.392 1.662l.022.027.005.007.002.002.392-.31.391-.311-.002-.003-.006-.007-.023-.029-.086-.108a49.95 49.95 0 0 0-1.334-1.589c-.392-.447-.82-.914-1.212-1.3-.373-.367-.771-.72-1.096-.87l-.423.905Zm3.79 3.312-.012-.5h-.046l-.133.003a51.578 51.578 0 0 1-2.03-.007 24.089 24.089 0 0 1-1.699-.093c-.538-.053-.896-.125-1.044-.194l-.423.906c.324.152.849.232 1.37.284.546.053 1.177.082 1.77.097a50.497 50.497 0 0 0 2.21.005l.037-.001h.012l-.011-.5Zm-4.963-.79a1.389 1.389 0 0 1-.716-.786l-.94.34a2.389 2.389 0 0 0 1.231 1.35l.425-.905Zm-.716-.786a1.398 1.398 0 0 1 .047-1.065l-.906-.423a2.398 2.398 0 0 0-.081 1.828l.94-.34Zm.047-1.065c.156-.335.438-.593.783-.719l-.342-.94A2.387 2.387 0 0 0 9.385 7.88l.906.423Zm.783-.719a1.379 1.379 0 0 1 1.058.048l.425-.906a2.379 2.379 0 0 0-1.825-.081l.342.94Zm8.37-.858c-.325.152-.723.504-1.096.87-.393.387-.82.854-1.212 1.301a50.699 50.699 0 0 0-1.42 1.697l-.023.029a.48.48 0 0 1-.006.007l-.002.002.391.312.392.31.002-.002.005-.007.022-.027c.019-.024.047-.06.084-.104a48.525 48.525 0 0 1 1.307-1.558c.385-.439.794-.885 1.161-1.246.387-.38.671-.61.818-.678l-.423-.906Zm-3.368 4.218-.012.5H16.114a27.887 27.887 0 0 0 .635.009c.415.003.98.002 1.574-.013a25.115 25.115 0 0 0 1.772-.098c.52-.05 1.045-.131 1.37-.283l-.424-.906c-.148.07-.506.141-1.044.194-.512.05-1.116.079-1.699.093a49.527 49.527 0 0 1-2.03.007l-.133-.002-.035-.001h-.011l-.013.5Zm5.389.115c.284-.133.538-.321.75-.553l-.74-.674c-.122.135-.27.244-.435.322l.425.905Zm.75-.553a2.39 2.39 0 0 0 .481-.798l-.94-.34c-.062.172-.157.33-.28.464l.739.674Zm.481-.798c.107-.295.155-.609.14-.922l-.998.044c.008.183-.02.366-.082.538l.94.34Zm.14-.922a2.398 2.398 0 0 0-.221-.906l-.906.423c.077.165.12.345.129.527l.999-.044Zm-.221-.906a2.392 2.392 0 0 0-.55-.752l-.677.737c.134.123.243.272.32.438l.907-.423Zm-.55-.752a2.384 2.384 0 0 0-.797-.483l-.342.94c.17.061.328.157.462.28l.676-.737Zm-.797-.483a2.38 2.38 0 0 0-.92-.142l.044 1c.182-.009.363.02.534.081l.342-.94Zm-.92-.142a2.38 2.38 0 0 0-.905.223l.425.906a1.38 1.38 0 0 1 .524-.13l-.044-.999ZM7.703 15.64v7.06h1v-7.06h-1Zm2.792 9.861h11.01v-1h-11.01v1Zm13.802-2.8v-7.061h-1v7.06h1Zm-2.792 2.8a2.796 2.796 0 0 0 2.792-2.8h-1c0 .996-.804 1.8-1.792 1.8v1ZM7.703 22.7c0 1.545 1.249 2.8 2.792 2.8v-1a1.796 1.796 0 0 1-1.792-1.8h-1Zm9.68-6.646h6.853v-1h-6.853v1Zm8.117-1.266v-2.312h-1v2.312h1Zm-2.028-4.345H8.528v1h14.944v-1ZM6.5 12.476v2.312h1v-2.312h-1Zm1.264 3.578h6.85v-1h-6.85v1ZM6.5 14.788c0 .697.564 1.266 1.264 1.266v-1a.265.265 0 0 1-.264-.266h-1Zm2.028-4.345A2.03 2.03 0 0 0 6.5 12.476h1a1.03 1.03 0 0 1 1.028-1.033v-1ZM25.5 12.476a2.03 2.03 0 0 0-2.028-2.033v1a1.03 1.03 0 0 1 1.028 1.033h1Zm-1.264 3.578c.7 0 1.264-.568 1.264-1.266h-1c0 .149-.12.266-.264.266v1Zm-10.065-5.016v13.904h1V11.038h-1Zm2.658 0v13.904h1V11.038h-1Z" fill="#000"/></svg>
